svg/24/logo-adobe-lightroom.svg

<svg width="24" height="24" viewBox="0 0 24 24" fill="currentColor" xmlns="http://www.w3.org/2000/svg"><path fill-rule="evenodd" clip-rule="evenodd" d="M6.03846 3H17.9621C19.7694 3 21.2311 4.4616 21.2311 6.2688V17.7312C21.2311 19.5384 19.7694 21 17.9621 21H6.03846C4.23119 21 2.76953 19.5384 2.76953 17.7312V6.2688C2.76953 4.4616 4.23119 3 6.03846 3ZM12.4608 15.7226H7.58621C7.49981 15.7226 7.4638 15.6794 7.4638 15.5858V7.72336C7.4566 7.67296 7.49261 7.62256 7.55021 7.61536H9.08387C9.11987 7.60816 9.17027 7.63696 9.17027 7.68016V14.1602H12.7272C12.8064 14.1602 12.828 14.1962 12.8136 14.2682L12.5904 15.6074C12.5904 15.6434 12.5688 15.6794 12.5472 15.701C12.5184 15.7154 12.4896 15.7226 12.4608 15.7226ZM15.0378 9.56647H13.6913C13.6769 9.55927 13.6697 9.55927 13.6553 9.57367C13.6193 9.58087 13.5977 9.62407 13.6049 9.66007C13.6265 9.83287 13.6409 9.99847 13.6481 10.1713C13.6517 10.2693 13.6535 10.3692 13.6553 10.47C13.6571 10.5691 13.6589 10.669 13.6625 10.7689C13.6697 10.9705 13.6697 11.1577 13.6697 11.3449V15.6361C13.6769 15.7009 13.7273 15.7369 13.7921 15.7297H15.2898C15.3618 15.7297 15.3906 15.7009 15.3906 15.6217V11.6977C15.5058 11.5681 15.657 11.4817 15.8082 11.4097C16.2618 11.2153 16.7658 11.1217 17.2626 11.1505C17.349 11.1505 17.385 11.1289 17.385 11.0641V9.53047C17.3778 9.47287 17.3274 9.43687 17.277 9.44407C16.881 9.42967 16.485 9.52327 16.1322 9.71767C15.8226 9.89047 15.5418 10.1137 15.3114 10.3801C15.3114 10.2865 15.3042 10.1929 15.297 10.1065C15.2898 10.0273 15.2754 9.94807 15.261 9.86887C15.2466 9.80407 15.225 9.73927 15.1962 9.68887C15.1746 9.61687 15.117 9.56647 15.0378 9.56647Z"/></svg>

<svg xmlns="http://www.w3.org/2000/svg" width="24" height="24" fill="currentColor" viewBox="0 0 24 24">
  <path fill-rule="evenodd" d="M6.038 3h11.924a3.266 3.266 0 0 1 3.27 3.269V17.73A3.266 3.266 0 0 1 17.961 21H6.038a3.266 3.266 0 0 1-3.268-3.269V6.27A3.266 3.266 0 0 1 6.038 3Zm6.423 12.723H7.586c-.086 0-.122-.044-.122-.137V7.723a.097.097 0 0 1 .086-.108h1.534c.036-.007.086.022.086.065v6.48h3.557c.08 0 .101.036.087.108l-.224 1.34a.143.143 0 0 1-.043.093.192.192 0 0 1-.086.022Zm2.577-6.157H13.69c-.014-.007-.021-.007-.036.008-.036.007-.057.05-.05.086a6.116 6.116 0 0 1 .05.81c.002.1.004.199.008.299.007.201.007.389.007.576v4.291c.007.065.057.1.122.094h1.498c.072 0 .1-.03.1-.108v-3.924c.116-.13.267-.216.418-.288a3.243 3.243 0 0 1 1.455-.26c.086 0 .122-.021.122-.086V9.53a.097.097 0 0 0-.108-.086 2.207 2.207 0 0 0-1.145.274c-.31.172-.59.396-.82.662 0-.094-.008-.187-.015-.274a2.706 2.706 0 0 0-.036-.237.665.665 0 0 0-.065-.18.162.162 0 0 0-.158-.123Z" clip-rule="evenodd"/>
</svg>
